X: 35315
T: Rose-Bud Of Allenvale, The
R: jig
M: 6/8
K: Amajor
ed|:c2c BAB|A2A ABc|d>ef ecA|B3Bed|
c>de ABc|d2e f>ga|eadc2B|1 A3Aed:|2 A3Acd||
|:e>f=gf2e|d3d2e|f>ga g2f|e3efg|
aecA2G|FAc fgf|eAdc2B|1 A3A>Bc/d/:|2 A3A||

